images/3232797.svg

<?xml version="1.0" encoding="UTF-8"?>
<svg xmlns="http://www.w3.org/2000/svg" xmlns:xlink="http://www.w3.org/1999/xlink" width="300pt" height="300pt" viewBox="0 0 300 300" version="1.1">
<defs>
<g>
<symbol overflow="visible" id="glyph0-0">
<path style="stroke:none;" d="M 0.75 2.65625 L 0.75 -10.578125 L 8.25 -10.578125 L 8.25 2.65625 Z M 1.59375 1.8125 L 7.40625 1.8125 L 7.40625 -9.734375 L 1.59375 -9.734375 Z M 1.59375 1.8125 "/>
</symbol>
<symbol overflow="visible" id="glyph0-1">
<path style="stroke:none;" d="M 1.46875 -10.9375 L 3.46875 -10.9375 L 8.3125 -1.78125 L 8.3125 -10.9375 L 9.75 -10.9375 L 9.75 0 L 7.75 0 L 2.90625 -9.140625 L 2.90625 0 L 1.46875 0 Z M 1.46875 -10.9375 "/>
</symbol>
<symbol overflow="visible" id="glyph0-2">
<path style="stroke:none;" d="M 5.90625 -9.9375 C 4.832031 -9.9375 3.976562 -9.535156 3.34375 -8.734375 C 2.71875 -7.929688 2.40625 -6.835938 2.40625 -5.453125 C 2.40625 -4.078125 2.71875 -2.988281 3.34375 -2.1875 C 3.976562 -1.382812 4.832031 -0.984375 5.90625 -0.984375 C 6.976562 -0.984375 7.828125 -1.382812 8.453125 -2.1875 C 9.085938 -2.988281 9.40625 -4.078125 9.40625 -5.453125 C 9.40625 -6.835938 9.085938 -7.929688 8.453125 -8.734375 C 7.828125 -9.535156 6.976562 -9.9375 5.90625 -9.9375 Z M 5.90625 -11.140625 C 7.4375 -11.140625 8.660156 -10.625 9.578125 -9.59375 C 10.503906 -8.5625 10.96875 -7.179688 10.96875 -5.453125 C 10.96875 -3.734375 10.503906 -2.359375 9.578125 -1.328125 C 8.660156 -0.296875 7.4375 0.21875 5.90625 0.21875 C 4.375 0.21875 3.144531 -0.289062 2.21875 -1.3125 C 1.300781 -2.34375 0.84375 -3.722656 0.84375 -5.453125 C 0.84375 -7.179688 1.300781 -8.5625 2.21875 -9.59375 C 3.144531 -10.625 4.375 -11.140625 5.90625 -11.140625 Z M 5.90625 -11.140625 "/>
</symbol>
<symbol overflow="visible" id="glyph0-3">
<path style="stroke:none;" d="M 1.46875 -10.9375 L 2.953125 -10.9375 L 2.953125 -6.453125 L 8.328125 -6.453125 L 8.328125 -10.9375 L 9.8125 -10.9375 L 9.8125 0 L 8.328125 0 L 8.328125 -5.203125 L 2.953125 -5.203125 L 2.953125 0 L 1.46875 0 Z M 1.46875 -10.9375 "/>
</symbol>
<symbol overflow="visible" id="glyph1-0">
<path style="stroke:none;" d="M 0.59375 2.125 L 0.59375 -8.46875 L 6.59375 -8.46875 L 6.59375 2.125 Z M 1.265625 1.453125 L 5.9375 1.453125 L 5.9375 -7.78125 L 1.265625 -7.78125 Z M 1.265625 1.453125 "/>
</symbol>
<symbol overflow="visible" id="glyph1-1">
<path style="stroke:none;" d="M 2.296875 -1 L 6.4375 -1 L 6.4375 0 L 0.875 0 L 0.875 -1 C 1.320312 -1.457031 1.929688 -2.078125 2.703125 -2.859375 C 3.484375 -3.648438 3.972656 -4.160156 4.171875 -4.390625 C 4.554688 -4.804688 4.820312 -5.160156 4.96875 -5.453125 C 5.125 -5.753906 5.203125 -6.046875 5.203125 -6.328125 C 5.203125 -6.796875 5.035156 -7.175781 4.703125 -7.46875 C 4.378906 -7.757812 3.957031 -7.90625 3.4375 -7.90625 C 3.0625 -7.90625 2.664062 -7.84375 2.25 -7.71875 C 1.84375 -7.59375 1.40625 -7.394531 0.9375 -7.125 L 0.9375 -8.328125 C 1.414062 -8.515625 1.859375 -8.65625 2.265625 -8.75 C 2.679688 -8.851562 3.0625 -8.90625 3.40625 -8.90625 C 4.3125 -8.90625 5.035156 -8.675781 5.578125 -8.21875 C 6.117188 -7.769531 6.390625 -7.164062 6.390625 -6.40625 C 6.390625 -6.050781 6.320312 -5.710938 6.1875 -5.390625 C 6.050781 -5.066406 5.804688 -4.6875 5.453125 -4.25 C 5.347656 -4.132812 5.035156 -3.804688 4.515625 -3.265625 C 3.992188 -2.722656 3.253906 -1.96875 2.296875 -1 Z M 2.296875 -1 "/>
</symbol>
</g>
</defs>
<g id="surface54829">
<rect x="0" y="0" width="300" height="300" style="fill:rgb(100%,100%,100%);fill-opacity:1;stroke:none;"/>
<path style="fill:none;stroke-width:1.2;stroke-linecap:butt;stroke-linejoin:miter;stroke:rgb(0%,0%,0%);stroke-opacity:1;stroke-miterlimit:10;" d="M 50.574219 194.113281 L 35.25 161.757812 "/>
<path style="fill:none;stroke-width:1.2;stroke-linecap:butt;stroke-linejoin:miter;stroke:rgb(0%,0%,0%);stroke-opacity:1;stroke-miterlimit:10;" d="M 56.652344 187.269531 L 44.394531 161.386719 "/>
<path style="fill:none;stroke-width:1.2;stroke-linecap:butt;stroke-linejoin:miter;stroke:rgb(0%,0%,0%);stroke-opacity:1;stroke-miterlimit:10;" d="M 86.253906 197.019531 L 50.574219 194.113281 "/>
<path style="fill:none;stroke-width:1.2;stroke-linecap:butt;stroke-linejoin:miter;stroke:rgb(0%,0%,0%);stroke-opacity:1;stroke-miterlimit:10;" d="M 35.25 161.757812 L 55.609375 132.308594 "/>
<path style="fill:none;stroke-width:1.2;stroke-linecap:butt;stroke-linejoin:miter;stroke:rgb(0%,0%,0%);stroke-opacity:1;stroke-miterlimit:10;" d="M 55.609375 132.308594 L 91.292969 135.214844 "/>
<path style="fill:none;stroke-width:1.2;stroke-linecap:butt;stroke-linejoin:miter;stroke:rgb(0%,0%,0%);stroke-opacity:1;stroke-miterlimit:10;" d="M 58.492188 140.996094 L 87.039062 143.320312 "/>
<path style="fill:none;stroke-width:1.2;stroke-linecap:butt;stroke-linejoin:miter;stroke:rgb(0%,0%,0%);stroke-opacity:1;stroke-miterlimit:10;" d="M 91.292969 135.214844 L 106.613281 167.570312 "/>
<path style="fill:none;stroke-width:1.2;stroke-linecap:butt;stroke-linejoin:miter;stroke:rgb(0%,0%,0%);stroke-opacity:1;stroke-miterlimit:10;" d="M 91.292969 135.214844 L 111.648438 105.769531 "/>
<path style="fill:none;stroke-width:1.2;stroke-linecap:butt;stroke-linejoin:miter;stroke:rgb(0%,0%,0%);stroke-opacity:1;stroke-miterlimit:10;" d="M 106.613281 167.570312 L 86.253906 197.019531 "/>
<path style="fill:none;stroke-width:1.2;stroke-linecap:butt;stroke-linejoin:miter;stroke:rgb(0%,0%,0%);stroke-opacity:1;stroke-miterlimit:10;" d="M 97.648438 165.726562 L 81.363281 189.285156 "/>
<path style="fill:none;stroke-width:1.2;stroke-linecap:butt;stroke-linejoin:miter;stroke:rgb(0%,0%,0%);stroke-opacity:1;stroke-miterlimit:10;" d="M 106.613281 167.570312 L 142.296875 170.480469 "/>
<path style="fill:none;stroke-width:1.2;stroke-linecap:butt;stroke-linejoin:miter;stroke:rgb(0%,0%,0%);stroke-opacity:1;stroke-miterlimit:10;" d="M 142.296875 170.480469 L 149.957031 186.65625 "/>
<path style="fill:none;stroke-width:1.2;stroke-linecap:butt;stroke-linejoin:miter;stroke:rgb(0%,0%,100%);stroke-opacity:1;stroke-miterlimit:10;" d="M 149.957031 186.65625 L 157.621094 202.835938 "/>
<path style="fill:none;stroke-width:1.2;stroke-linecap:butt;stroke-linejoin:miter;stroke:rgb(0%,0%,0%);stroke-opacity:1;stroke-miterlimit:10;" d="M 151.441406 170.109375 L 157.570312 183.050781 "/>
<path style="fill:none;stroke-width:1.2;stroke-linecap:butt;stroke-linejoin:miter;stroke:rgb(0%,0%,100%);stroke-opacity:1;stroke-miterlimit:10;" d="M 157.570312 183.050781 L 163.699219 195.992188 "/>
<path style="fill:none;stroke-width:1.2;stroke-linecap:butt;stroke-linejoin:miter;stroke:rgb(0%,0%,100%);stroke-opacity:1;stroke-miterlimit:10;" d="M 162.65625 141.03125 L 152.476562 155.753906 "/>
<path style="fill:none;stroke-width:1.2;stroke-linecap:butt;stroke-linejoin:miter;stroke:rgb(0%,0%,0%);stroke-opacity:1;stroke-miterlimit:10;" d="M 152.476562 155.753906 L 142.296875 170.480469 "/>
<path style="fill:none;stroke-width:1.2;stroke-linecap:butt;stroke-linejoin:miter;stroke:rgb(0%,0%,100%);stroke-opacity:1;stroke-miterlimit:10;" d="M 157.621094 202.835938 L 175.460938 204.289062 "/>
<path style="fill:none;stroke-width:1.2;stroke-linecap:butt;stroke-linejoin:miter;stroke:rgb(0%,0%,0%);stroke-opacity:1;stroke-miterlimit:10;" d="M 175.460938 204.289062 L 193.300781 205.742188 "/>
<path style=" stroke:none;fill-rule:nonzero;fill:rgb(100%,100%,100%);fill-opacity:1;" d="M 152.621094 193.835938 L 163.621094 193.835938 L 163.621094 211.835938 L 152.621094 211.835938 Z M 152.621094 193.835938 "/>
<g style="fill:rgb(0%,0%,100%);fill-opacity:1;">
  <use xlink:href="#glyph0-1" x="152.621094" y="207.450195"/>
</g>
<path style="fill:none;stroke-width:1.2;stroke-linecap:butt;stroke-linejoin:miter;stroke:rgb(0%,0%,0%);stroke-opacity:1;stroke-miterlimit:10;" d="M 193.300781 205.742188 L 208.625 238.097656 "/>
<path style="fill:none;stroke-width:1.2;stroke-linecap:butt;stroke-linejoin:miter;stroke:rgb(0%,0%,0%);stroke-opacity:1;stroke-miterlimit:10;" d="M 202.445312 205.371094 L 214.707031 231.257812 "/>
<path style="fill:none;stroke-width:1.2;stroke-linecap:butt;stroke-linejoin:miter;stroke:rgb(0%,0%,0%);stroke-opacity:1;stroke-miterlimit:10;" d="M 213.660156 176.292969 L 193.300781 205.742188 "/>
<path style="fill:none;stroke-width:1.2;stroke-linecap:butt;stroke-linejoin:miter;stroke:rgb(0%,0%,0%);stroke-opacity:1;stroke-miterlimit:10;" d="M 208.625 238.097656 L 244.308594 241.003906 "/>
<path style="fill:none;stroke-width:1.2;stroke-linecap:butt;stroke-linejoin:miter;stroke:rgb(0%,0%,0%);stroke-opacity:1;stroke-miterlimit:10;" d="M 244.308594 241.003906 L 264.664062 211.558594 "/>
<path style="fill:none;stroke-width:1.2;stroke-linecap:butt;stroke-linejoin:miter;stroke:rgb(0%,0%,0%);stroke-opacity:1;stroke-miterlimit:10;" d="M 239.414062 233.269531 L 255.699219 209.710938 "/>
<path style="fill:none;stroke-width:1.2;stroke-linecap:butt;stroke-linejoin:miter;stroke:rgb(0%,0%,0%);stroke-opacity:1;stroke-miterlimit:10;" d="M 264.664062 211.558594 L 249.34375 179.203125 "/>
<path style="fill:none;stroke-width:1.2;stroke-linecap:butt;stroke-linejoin:miter;stroke:rgb(0%,0%,0%);stroke-opacity:1;stroke-miterlimit:10;" d="M 249.34375 179.203125 L 213.660156 176.292969 "/>
<path style="fill:none;stroke-width:1.2;stroke-linecap:butt;stroke-linejoin:miter;stroke:rgb(0%,0%,0%);stroke-opacity:1;stroke-miterlimit:10;" d="M 245.089844 187.304688 L 216.542969 184.980469 "/>
<path style="fill:none;stroke-width:1.2;stroke-linecap:butt;stroke-linejoin:miter;stroke:rgb(0%,0%,0%);stroke-opacity:1;stroke-miterlimit:10;" d="M 213.660156 176.292969 L 198.335938 143.9375 "/>
<path style="fill:none;stroke-width:1.2;stroke-linecap:butt;stroke-linejoin:miter;stroke:rgb(0%,0%,0%);stroke-opacity:1;stroke-miterlimit:10;" d="M 198.335938 143.9375 L 180.496094 142.484375 "/>
<path style="fill:none;stroke-width:1.2;stroke-linecap:butt;stroke-linejoin:miter;stroke:rgb(0%,0%,100%);stroke-opacity:1;stroke-miterlimit:10;" d="M 180.496094 142.484375 L 162.65625 141.03125 "/>
<path style="fill:none;stroke-width:1.2;stroke-linecap:butt;stroke-linejoin:miter;stroke:rgb(0%,0%,0%);stroke-opacity:1;stroke-miterlimit:10;" d="M 194.085938 152.042969 L 179.8125 150.878906 "/>
<path style="fill:none;stroke-width:1.2;stroke-linecap:butt;stroke-linejoin:miter;stroke:rgb(0%,0%,100%);stroke-opacity:1;stroke-miterlimit:10;" d="M 179.8125 150.878906 L 165.539062 149.71875 "/>
<path style="fill:none;stroke-width:1.2;stroke-linecap:butt;stroke-linejoin:miter;stroke:rgb(0%,0%,0%);stroke-opacity:1;stroke-miterlimit:10;" d="M 198.335938 143.9375 L 208.515625 129.214844 "/>
<path style="fill:none;stroke-width:1.2;stroke-linecap:butt;stroke-linejoin:miter;stroke:rgb(0%,0%,100%);stroke-opacity:1;stroke-miterlimit:10;" d="M 208.515625 129.214844 L 218.695312 114.492188 "/>
<path style=" stroke:none;fill-rule:nonzero;fill:rgb(100%,100%,100%);fill-opacity:1;" d="M 157.65625 132.03125 L 168.65625 132.03125 L 168.65625 150.03125 L 157.65625 150.03125 Z M 157.65625 132.03125 "/>
<g style="fill:rgb(0%,0%,100%);fill-opacity:1;">
  <use xlink:href="#glyph0-1" x="157.65625" y="145.645508"/>
</g>
<path style="fill:none;stroke-width:1.2;stroke-linecap:butt;stroke-linejoin:miter;stroke:rgb(0%,0%,100%);stroke-opacity:1;stroke-miterlimit:10;" d="M 218.695312 114.492188 L 212.769531 97.601562 "/>
<path style="fill:none;stroke-width:1.2;stroke-linecap:butt;stroke-linejoin:miter;stroke:rgb(0%,0%,0%);stroke-opacity:1;stroke-miterlimit:10;" d="M 212.769531 97.601562 L 206.839844 80.710938 "/>
<path style="fill:none;stroke-width:1.2;stroke-linecap:butt;stroke-linejoin:miter;stroke:rgb(0%,0%,0%);stroke-opacity:1;stroke-miterlimit:10;" d="M 254.488281 113.652344 L 236.59375 114.070312 "/>
<path style="fill:none;stroke-width:1.2;stroke-linecap:butt;stroke-linejoin:miter;stroke:rgb(0%,0%,100%);stroke-opacity:1;stroke-miterlimit:10;" d="M 236.59375 114.070312 L 218.695312 114.492188 "/>
<path style=" stroke:none;fill-rule:nonzero;fill:rgb(100%,100%,100%);fill-opacity:1;" d="M 213.695312 105.492188 L 224.695312 105.492188 L 224.695312 123.492188 L 213.695312 123.492188 Z M 213.695312 105.492188 "/>
<g style="fill:rgb(0%,0%,100%);fill-opacity:1;">
  <use xlink:href="#glyph0-1" x="213.695312" y="119.106445"/>
</g>
<path style="fill:none;stroke-width:1.2;stroke-linecap:butt;stroke-linejoin:miter;stroke:rgb(0%,0%,0%);stroke-opacity:1;stroke-miterlimit:10;" d="M 206.839844 80.710938 L 235.300781 58.996094 "/>
<path style="fill:none;stroke-width:1.2;stroke-linecap:butt;stroke-linejoin:miter;stroke:rgb(0%,0%,0%);stroke-opacity:1;stroke-miterlimit:10;" d="M 214.796875 85.234375 L 237.566406 67.863281 "/>
<path style="fill:none;stroke-width:1.2;stroke-linecap:butt;stroke-linejoin:miter;stroke:rgb(0%,0%,0%);stroke-opacity:1;stroke-miterlimit:10;" d="M 235.300781 58.996094 L 250.027344 69.175781 "/>
<path style="fill:none;stroke-width:1.2;stroke-linecap:butt;stroke-linejoin:miter;stroke:rgb(0%,0%,100%);stroke-opacity:1;stroke-miterlimit:10;" d="M 250.027344 69.175781 L 264.75 79.355469 "/>
<path style="fill:none;stroke-width:1.2;stroke-linecap:butt;stroke-linejoin:miter;stroke:rgb(0%,0%,100%);stroke-opacity:1;stroke-miterlimit:10;" d="M 264.75 79.355469 L 259.617188 96.503906 "/>
<path style="fill:none;stroke-width:1.2;stroke-linecap:butt;stroke-linejoin:miter;stroke:rgb(0%,0%,0%);stroke-opacity:1;stroke-miterlimit:10;" d="M 259.617188 96.503906 L 254.488281 113.652344 "/>
<path style="fill:none;stroke-width:1.2;stroke-linecap:butt;stroke-linejoin:miter;stroke:rgb(0%,0%,100%);stroke-opacity:1;stroke-miterlimit:10;" d="M 255.652344 80.371094 L 251.546875 94.089844 "/>
<path style="fill:none;stroke-width:1.2;stroke-linecap:butt;stroke-linejoin:miter;stroke:rgb(0%,0%,0%);stroke-opacity:1;stroke-miterlimit:10;" d="M 251.546875 94.089844 L 247.445312 107.808594 "/>
<path style=" stroke:none;fill-rule:nonzero;fill:rgb(100%,100%,100%);fill-opacity:1;" d="M 259.75 70.355469 L 270.75 70.355469 L 270.75 88.355469 L 259.75 88.355469 Z M 259.75 70.355469 "/>
<g style="fill:rgb(0%,0%,100%);fill-opacity:1;">
  <use xlink:href="#glyph0-1" x="259.75" y="83.969727"/>
</g>
<path style="fill:none;stroke-width:1.2;stroke-linecap:butt;stroke-linejoin:miter;stroke:rgb(0%,0%,0%);stroke-opacity:1;stroke-miterlimit:10;" d="M 111.308594 109.964844 L 129.148438 111.417969 "/>
<path style="fill:none;stroke-width:1.2;stroke-linecap:butt;stroke-linejoin:miter;stroke:rgb(100%,0%,0%);stroke-opacity:1;stroke-miterlimit:10;" d="M 129.148438 111.417969 L 146.992188 112.875 "/>
<path style="fill:none;stroke-width:1.2;stroke-linecap:butt;stroke-linejoin:miter;stroke:rgb(0%,0%,0%);stroke-opacity:1;stroke-miterlimit:10;" d="M 111.992188 101.570312 L 129.832031 103.023438 "/>
<path style="fill:none;stroke-width:1.2;stroke-linecap:butt;stroke-linejoin:miter;stroke:rgb(100%,0%,0%);stroke-opacity:1;stroke-miterlimit:10;" d="M 129.832031 103.023438 L 147.675781 104.476562 "/>
<path style="fill:none;stroke-width:1.2;stroke-linecap:butt;stroke-linejoin:miter;stroke:rgb(0%,0%,0%);stroke-opacity:1;stroke-miterlimit:10;" d="M 111.648438 105.769531 L 103.988281 89.589844 "/>
<path style="fill:none;stroke-width:1.2;stroke-linecap:butt;stroke-linejoin:miter;stroke:rgb(0%,0%,100%);stroke-opacity:1;stroke-miterlimit:10;" d="M 103.988281 89.589844 L 96.328125 73.414062 "/>
<path style=" stroke:none;fill-rule:nonzero;fill:rgb(100%,100%,100%);fill-opacity:1;" d="M 141.332031 99.675781 L 153.332031 99.675781 L 153.332031 117.675781 L 141.332031 117.675781 Z M 141.332031 99.675781 "/>
<g style="fill:rgb(100%,0%,0%);fill-opacity:1;">
  <use xlink:href="#glyph0-2" x="141.332031" y="113.290039"/>
</g>
<path style=" stroke:none;fill-rule:nonzero;fill:rgb(100%,100%,100%);fill-opacity:1;" d="M 66.328125 62.414062 L 96.328125 62.414062 L 96.328125 84.414062 L 66.328125 84.414062 Z M 66.328125 62.414062 "/>
<g style="fill:rgb(0%,0%,100%);fill-opacity:1;">
  <use xlink:href="#glyph0-3" x="66.328125" y="76.02832"/>
</g>
<g style="fill:rgb(0%,0%,100%);fill-opacity:1;">
  <use xlink:href="#glyph1-1" x="77.360352" y="80.911133"/>
</g>
<g style="fill:rgb(0%,0%,100%);fill-opacity:1;">
  <use xlink:href="#glyph0-1" x="85.134766" y="76.02832"/>
</g>
</g>
</svg>

<svg xmlns="http://www.w3.org/2000/svg" xmlns:xlink="http://www.w3.org/1999/xlink" width="300pt" height="300pt" viewBox="0 0 300 300"><defs><symbol overflow="visible"><path d="M.75 2.656v-13.234h7.5V2.656zm.844-.844h5.812V-9.733H1.594zm0 0"/></symbol><symbol overflow="visible" id="a"><path d="M1.47-10.938h2L8.31-1.78v-9.158H9.75V0h-2L2.906-9.14V0H1.47zm0 0"/></symbol><symbol overflow="visible" id="b"><path d="M5.906-9.938c-1.074 0-1.93.403-2.562 1.204-.625.804-.938 1.898-.938 3.28 0 1.376.313 2.466.938 3.266.633.805 1.488 1.204 2.562 1.204 1.07 0 1.922-.4 2.547-1.204.633-.8.953-1.89.953-3.265 0-1.383-.32-2.477-.953-3.28-.625-.802-1.476-1.204-2.547-1.204zm0-1.203c1.532 0 2.754.515 3.672 1.546.926 1.03 1.39 2.414 1.39 4.14 0 1.72-.464 3.095-1.39 4.126C8.66-.298 7.438.22 5.906.22c-1.53 0-2.76-.51-3.687-1.532C1.3-2.345.843-3.723.843-5.452c0-1.728.457-3.11 1.375-4.142.925-1.03 2.155-1.547 3.686-1.547zm0 0"/></symbol><symbol overflow="visible" id="c"><path d="M1.47-10.938h1.483v4.485h5.375v-4.484h1.485V0H8.328v-5.203H2.953V0H1.47zm0 0"/></symbol><symbol overflow="visible"><path d="M.594 2.125V-8.47h6V2.126zm.672-.672h4.671V-7.78h-4.67zm0 0"/></symbol><symbol overflow="visible" id="d"><path d="M2.297-1h4.14v1H.875v-1c.445-.457 1.055-1.078 1.828-1.86.78-.788 1.27-1.3 1.47-1.53.382-.415.647-.77.796-1.063.155-.3.233-.594.233-.875 0-.47-.168-.848-.5-1.14-.324-.29-.746-.438-1.266-.438-.374 0-.773.062-1.187.187-.406.126-.844.325-1.313.595v-1.203c.477-.188.922-.328 1.33-.422.413-.102.796-.156 1.14-.156.905 0 1.628.23 2.17.687.54.45.814 1.056.814 1.814 0 .355-.07.695-.202 1.015-.137.324-.383.702-.735 1.14-.105.117-.418.445-.937.984C3.992-2.723 3.254-1.97 2.296-1zm0 0"/></symbol></defs><g><path fill="#fff" d="M0 0h300v300H0z"/><path d="M50.574 194.113L35.25 161.758M56.652 187.27l-12.257-25.883M86.254 197.02l-35.68-2.907M35.25 161.758l20.36-29.45M55.61 132.31l35.683 2.905M58.492 140.996l28.547 2.324M91.293 135.215l15.32 32.355M91.293 135.215l20.355-29.445M106.613 167.57l-20.36 29.45M97.648 165.727l-16.285 23.558M106.613 167.57l35.684 2.91M142.297 170.48l7.66 16.176" stroke-width="1.2" stroke="#000" stroke-miterlimit="10" fill="none"/><path d="M149.957 186.656l7.664 16.18" stroke-width="1.2" stroke="#00f" stroke-miterlimit="10" fill="none"/><path d="M151.44 170.11l6.13 12.94" stroke-width="1.2" stroke="#000" stroke-miterlimit="10" fill="none"/><path d="M157.57 183.05l6.13 12.942M162.656 141.03l-10.18 14.724" stroke-width="1.2" stroke="#00f" stroke-miterlimit="10" fill="none"/><path d="M152.477 155.754l-10.18 14.726" stroke-width="1.2" stroke="#000" stroke-miterlimit="10" fill="none"/><path d="M157.62 202.836l17.84 1.453" stroke-width="1.2" stroke="#00f" stroke-miterlimit="10" fill="none"/><path d="M175.46 204.29l17.84 1.452" stroke-width="1.2" stroke="#000" stroke-miterlimit="10" fill="none"/><path d="M152.62 193.836h11v18h-11zm0 0" fill="#fff"/><use xlink:href="#a" x="152.621" y="207.45" fill="#00f"/><path d="M193.3 205.742l15.325 32.356M202.445 205.37l12.262 25.888M213.66 176.293l-20.36 29.45M208.625 238.098l35.684 2.906M244.31 241.004l20.354-29.445M239.414 233.27l16.285-23.56M264.664 211.56l-15.32-32.357M249.344 179.203l-35.684-2.91M245.09 187.305l-28.547-2.325M213.66 176.293l-15.324-32.356M198.336 143.938l-17.84-1.454" stroke-width="1.2" stroke="#000" stroke-miterlimit="10" fill="none"/><path d="M180.496 142.484l-17.84-1.453" stroke-width="1.2" stroke="#00f" stroke-miterlimit="10" fill="none"/><path d="M194.086 152.043l-14.274-1.164" stroke-width="1.2" stroke="#000" stroke-miterlimit="10" fill="none"/><path d="M179.813 150.88l-14.274-1.16" stroke-width="1.2" stroke="#00f" stroke-miterlimit="10" fill="none"/><path d="M198.336 143.938l10.18-14.723" stroke-width="1.2" stroke="#000" stroke-miterlimit="10" fill="none"/><path d="M208.516 129.215l10.18-14.723" stroke-width="1.2" stroke="#00f" stroke-miterlimit="10" fill="none"/><path d="M157.656 132.03h11v18h-11zm0 0" fill="#fff"/><use xlink:href="#a" x="157.656" y="145.646" fill="#00f"/><path d="M218.695 114.492l-5.925-16.89" stroke-width="1.2" stroke="#00f" stroke-miterlimit="10" fill="none"/><path d="M212.77 97.602l-5.93-16.89M254.488 113.652l-17.894.418" stroke-width="1.2" stroke="#000" stroke-miterlimit="10" fill="none"/><path d="M236.594 114.07l-17.9.422" stroke-width="1.2" stroke="#00f" stroke-miterlimit="10" fill="none"/><path d="M213.695 105.492h11v18h-11zm0 0" fill="#fff"/><use xlink:href="#a" x="213.695" y="119.106" fill="#00f"/><path d="M206.84 80.71l28.46-21.714M214.797 85.234l22.77-17.37M235.3 58.996l14.727 10.18" stroke-width="1.2" stroke="#000" stroke-miterlimit="10" fill="none"/><path d="M250.027 69.176l14.723 10.18M264.75 79.355l-5.133 17.15" stroke-width="1.2" stroke="#00f" stroke-miterlimit="10" fill="none"/><path d="M259.617 96.504l-5.13 17.148" stroke-width="1.2" stroke="#000" stroke-miterlimit="10" fill="none"/><path d="M255.652 80.37l-4.105 13.72" stroke-width="1.2" stroke="#00f" stroke-miterlimit="10" fill="none"/><path d="M251.547 94.09l-4.102 13.72" stroke-width="1.2" stroke="#000" stroke-miterlimit="10" fill="none"/><path d="M259.75 70.355h11v18h-11zm0 0" fill="#fff"/><use xlink:href="#a" x="259.75" y="83.97" fill="#00f"/><path d="M111.31 109.965l17.838 1.453" stroke-width="1.2" stroke="#000" stroke-miterlimit="10" fill="none"/><path d="M129.148 111.418l17.844 1.457" stroke-width="1.2" stroke="#f00" stroke-miterlimit="10" fill="none"/><path d="M111.992 101.57l17.84 1.453" stroke-width="1.2" stroke="#000" stroke-miterlimit="10" fill="none"/><path d="M129.832 103.023l17.844 1.454" stroke-width="1.2" stroke="#f00" stroke-miterlimit="10" fill="none"/><path d="M111.648 105.77l-7.66-16.18" stroke-width="1.2" stroke="#000" stroke-miterlimit="10" fill="none"/><path d="M103.988 89.59l-7.66-16.176" stroke-width="1.2" stroke="#00f" stroke-miterlimit="10" fill="none"/><path d="M141.332 99.676h12v18h-12zm0 0" fill="#fff"/><use xlink:href="#b" x="141.332" y="113.29" fill="#f00"/><path d="M66.328 62.414h30v22h-30zm0 0" fill="#fff"/><use xlink:href="#c" x="66.328" y="76.028" fill="#00f"/><use xlink:href="#d" x="77.36" y="80.911" fill="#00f"/><use xlink:href="#a" x="85.135" y="76.028" fill="#00f"/></g></svg>
